!!!COM: Schubert, Franz
!!!CNT: Deutscher
!!!TXO: Deutsch
!!!LYR: Friedrich von Schiller
!!!OTL: "Die Hoffnung"
!!!OPS: Op. 87
!!!ONM: No. 2
!!!ODT: 1819/
!!NB: Vocal melody only encoded.
!!NB: Original key: Bb Major
**kern	**silbe
*clefG2	*
*k[f#]	*
*M6/8	*
*MM[Etwas geschwind]	*
=4	=4
4r	.
8r	.
4r	.
{8d	{Es
=5	=5
8.d	re-
16e	-den
8d	und
8d	tra2u-
8a	-men
8g	die
=6	=6
8.g	Men-
16f#	|
8e	-schen
4d	viel
8d	von
=7	=7
4a	bes-
8g	-sern
8.dd	ku2nf-
16b-	-ti-
8g	-gen
=8	=8
4.a	Ta-
4f#}	-gen;}
{8d	{nach
=9	=9
4e	ei-
8d	-nem
8.b	glu2ck-
16a	-li-
8g	-chen
=10	=10
8.g	gol-
16f#	-de-
8e	-nen
4d	Ziel
8d	sieht
=11	=11
4b	man
8b	sie
8.dd	ren-
16cc	-nen
8b	und
=12	=12
4a	ja-
8b	|
4g}	-gen.}
8r	.
=13	=13
2.r	.
=14	=14
4r	.
8r	.
4r	.
{8d	{Die
=15	=15
8.d	Welt
16e-	|
8d	wird
8.B-	alt
16c	und
8d	wird
=16	=16
8.fn	wie-
16g	|
8f	-der
4d}	jung,}
8r	.
=17	=17
8r	.
{8d	{doch
8d	der
4.g}	Mensch,}
=18	=18
8r	.
{8d	{doch
8d	der
4b	Mensch
8g#	hofft
=19	=19
4.g#	im-
8.a	|
16b	-mer
8cc	Ver-
=20	=20
[4.dd	-bes-
4dd]	|
8f#	-se-
=21	=21
4g}	-rung,}
{[8a	{im-
8.a]	|
16b	-mer
8cc	Ver-
=22	=22
[4.dd	-bes-
8.dd]	|
16d	|
16e	-se-
16f#	|
=23	=23
4g}	-rung.}
8r	.
4r	.
8r	.
=24	=24
2.r	.
=25	=25
2.r	.
=26	=26
4r	.
8r	.
4r	.
{8d	{Die
=27	=27
8.d	Hoff-
16e	|
8d	-nung
8d	fu2hrt
8a	ihm
8g	in's
=28	=28
8.g	Le-
16f#	|
8e	-ben
4d}	ein,}
{16d	{sie
16d	um-
=29	=29
8.b	-flat-
16a	-tert
8g	den
8.dd	fro2h-
16b-	-li-
8g	-chen
=30	=30
4.a	Kna-
4f#}	-ben,}
{8d	{den
=31	=31
8.e	Ju2ng-
16d	-ling
8d	be-
8.b	-gei-
16a	-stert
8g	ihr
=32	=32
8.g	Zau-
16f#	|
8e	-ber-
4d}	-schein,}
{8d	{sie
=33	=33
8b	wird
8b	mit
8b	dem
8.dd	Greis
16cc	nicht
8b	be-
=34	=34
4a	-gra-
8b	|
4g}	-ben;}
8r	.
=35	=35
2.r	.
=36	=36
4r	.
8r	.
4r	.
{16d	{denn
16d	be-
=37	=37
8.d	-schliesst
16e-	er
8d	im
8.B-	Gra-
16c	-be
8d	den
=38	=38
8.fn	mu2-
16g	|
8f	-den
4d}	Lauf,}
8r	.
=39	=39
8r	.
{8d	{noch
8d	am
4g	Gra-
8d}	-be,}
=40	=40
8r	.
{8d	{noch
8d	am
4b	Gra-
8g#	-be
=41	=41
4.g#	pflanzt
8.a	|
16b	er
8cc	die
=42	=42
[4.dd	Hoff-
4dd]	|
8f#	-nung
=43	=43
4g}	auf,}
{[8a	{pflanzt
8.a]	|
16b	er
8cc	die
=44	=44
[4.dd	Hof-
8.dd]	|
16d	|
16e	-nung
16f#	|
=45	=45
4g}	auf.}
8r	.
4r	.
8r	.
=46	=46
2.r	.
=47	=47
2.r	.
=48	=48
4r	.
8r	.
4r	.
{8d	{Es
=49	=49
8.d	ist
16e	|
8d	kein
8d	lee-
8a	-rer,
8g	kein
=50	=50
8.g	schmei-
16f#	-cheln-
8e	-der
4d}	Wahn,}
{8d	{er-
=51	=51
8.a	-zeugt
16g	im
8g	Ge-
8.dd	-hir-
16b-	-ne
8g	des
=52	=52
4.a	To-
4f#}	-ren,}
{8d	{im
=53	=53
4e	Her-
8d	-zen
8.b	ku2n-
16a	-det
8g	es
=54	=54
8.g	laut
16f#	|
8e	sich
4d}	an:}
{16d	{Zu
16d	was
=55	=55
4b	Bes-
8b	-serm
8.dd	sind
16cc	wir
8b	ge-
=56	=56
4a	-bo-
8b	|
4g}	-ren!}
8r	.
=57	=57
2.r	.
=58	=58
4r	.
8r	.
4r	.
{8d	{Und
=59	=59
8.d	was
16e-	|
8d	die
8.B-	in-
16c	-ne-
8d	-re
=60	=60
8.fn	Stim-
16g	|
8f	-me
4d}	spricht,}
8r	.
=61	=61
4r	.
{8d	{das
4.g}	ta2uscht,}
=62	=62
4r	.
{8d	{das
4b	ta2uscht
8g#	die
=63	=63
4.g#	hof-
8.a	|
16b	-fen-
8cc	-de
=64	=64
4.dd	See-
4dd	|
8f#	-le
=65	=65
4g}	nicht}
{8a	{die
8.a	hof-
16b	-fen-
8cc	-de
=66	=66
[4.dd	See-
8.dd]	|
16d	|
16e	-le
16f#	|
=67	=67
4g}	nicht.}
8r	.
4r	.
8r	.
==	==
*-	*-